X: 470
T: Bûselik Aranağme (Müsemmen)
C: ?
O: Turkey
F: http://compmusic.upf.edu/node/140
N: buselik--aranagme--musemmen--1--
N: makam= buselik
N: form= aranagme
N: usul= musemmen = 8/8
M: 8/8
L: 1/16
K: C    
Q: 1/4=120
%%MIDI tuningsystem comma53
G2c2 A2e2 c2a4e2  | f2d2 e2c3/2B/ A2e4z2  | \
w:  ARANAĞME  |   | 
e2a2 c'2b2 e'2d'c' ba^gf  | 
w:   | 
e4 ^de^gf egf4z2  | e2a2 gfe2 dfed cBAG  | 
w:   |   | 
c2A2 edc3/2B/ A^GA4z2  | G2c2 A2e2 c2a4e2  | \
w:   |  ARANAĞME  | 
f2d2 e2c3/2B/ A2e4z2  | 
w:   | 
e2a2 c'2b2 e'2d'c' ba^gf  | e4 ^de^gf egf4z2  | \
w:   |   | 
e2a2 gfe2 dfed cBAG  | 
w:   | 
c2A2 edc3/2B/ A^GA4z2  | |


